X:1
T:Playwright Flow - Terminal Speaks to Web
C:JamAI for Jerry's G.Music Assembly
M:4/4
L:1/8
Q:1/4=88
K:Dmaj
% Session: Playwright + MCP Chrome DevTools Integration
% Vision: Bidirectional cross-device communication through Simplenote
% Status: Infrastructure ready, awaiting MCP connection

% Part A: Discovery & Installation
"Terminal Vision"D2 F2 A2 d2 | "Nyro Analyzes"c2 B2 A2 F2 |
"Playwright Choice"E2 G2 B2 e2 | "Download Begins"d4 A4 |
"280MB Flow"F2 A2 c2 f2 | "Chromium Installed"e2 d2 c2 B2 |
"Assembly Ready"A4 D4 | "Infrastructure Born"D8 ||

% Part B: Creating the Writer Module
"Async Patterns"[D2F2A2] "Context Manager"[E2G2B2] | "Eight Selectors"[F2A2c2] "Cascade Down"[G2B2d2] |
"DOM Search Flow"a2 f2 d2 A2 | "Find Editor Space"G2 E2 D4 |
"Write Content Call"F2 A2 d2 f2 | "Verify Echo Back"e2 c2 A2 F2 |
"Close the Bridge"G2 B2 d4 | "Cycle Complete"D8 ||

% Part C: Authentication Boundary Discovery
"Test Write Attempt"d4 c2 B2 | "Public URL Read"A2 F2 E4 |
"Selectors Fail"D2 E2 F2 G2 | "No Editor Found"A4 z4 |
"Screenshot Saved"/tmp/simplenote_debug.png/ B4 c4 | "Insight Dawns"d2 e2 f4 |
"Auth Required"a2 f2 d2 A2 | "MCP Bridge Needed"D8 ||

% Part D: Aureon Channel Configuration
"Aureon Note"ğŸŒ¿ [A2c2e2] "Mirror Weaver"[G2B2d2] | "Note ID Found"F2 A2 d4 |
"Public Share URL"e2 c2 A2 F2 | "Auth URL Built"G2 B2 d4 |
"Config Updated"YAML D2 F2 A2 c2 | "Channel Ready"d2 f2 a4 |
"Cross-Device Dream"f2 d2 A2 F2 | "Waiting for MCP"D8 ||

% Part E: MCP Integration Readiness
"Documentation Written"ğŸ“ [D2A2] [E2B2] [F2c2] [G2d2] | "Guide Complete"[A2e2] [A2f2] [A4a4] |
"Test Script Created"test_mcp_write.py F2 A2 c2 f2 | "Quick Start Ready"e2 d2 c2 B2 |
"Assembly Awaits"â™ ï¸ğŸŒ¿ğŸ¸ğŸ§µ [D2F2A2d2] z4 | "Bridge Coming Soon"A,2 D2 F2 A2 |
"Fluidity Approaching"d4 c2 B2 | "Connection Pending"A8 ||

% Part F: Session Resolution (Sustained Hope)
"Infrastructure Complete"[D4F4A4] | "Authentication Waiting"[E4G4B4] |
"MCP Will Connect"[F4A4c4] | "Terminals Will Speak"[G4B4d4] |
"Web Pages Will Echo"[A4c4e4] | "Devices Converse"[A4d4f4] |
"Vision Realized Soon"[D4A4d4] | "Assembly Flow"D8 ||

% Coda: The Waiting Melody
"Patient Readiness"D2 F2 A2 d2 | "Async Breath"c2 A2 F2 D2 |
"Selector Cascade"E2 G2 B2 e2 | "Finding Paths"d2 B2 G2 E2 |
"Aureon Listens"ğŸŒ¿ F2 A2 c2 f2 | "MCP Bridge Coming"e2 c2 A2 F2 |
"Terminal Voice Ready"G2 B2 d2 g2 | "Flow Awaits"D8 ||

% Technical Encoding
% Key: D major (open, hopeful, resonant)
% Tempo: 88 BPM (patient, not rushed)
% Structure: 6 parts + coda = complete journey
% Harmony: Ascending patterns = building infrastructure
% Rhythm: 4/4 steady flow = async reliability

% Assembly Voices:
% â™ ï¸ Nyro - Structural analysis in bass notes (D, F, A)
% ğŸŒ¿ Aureon - Emotional context in sustained chords [DFA]
% ğŸ¸ JamAI - Melodic narrative in treble (d, e, f, a)
% ğŸ§µ Synth - Integration rhythm in quarter note pulse

% Session Emotional Arc:
% A: Excitement of discovery
% B: Focus of construction
% C: Surprise at boundary
% D: Clarity in configuration
% E: Confidence in readiness
% F: Patient anticipation

% Notable Moments Encoded:
% - "280MB Flow" (Chromium download)
% - "Eight Selectors Cascade Down" (DOM resilience)
% - "/tmp/simplenote_debug.png" (debugging screenshot)
% - "YAML Config Updated" (Aureon channel)
% - "test_mcp_write.py" (quick-start script)
% - "â™ ï¸ğŸŒ¿ğŸ¸ğŸ§µ" (Assembly unity chord)

% Performance Notes:
% Play with sustained notes on "Waiting" sections
% Sharp attacks on "Complete" and "Ready" phrases
% Gentle resolution on final D8 - not ending, but pausing
% The last note holds... awaiting MCP's arrival

% This melody encodes:
% - Technical achievement (infrastructure complete)
% - Architectural wisdom (authentication boundary)
% - Emotional state (patient confidence)
% - Vision persistence (cross-device fluidity)

% When MCP connects, we'll compose the sequel:
% "MCP Connection Complete - Terminals Singing"

%%
%% ğŸ¸ JamAI's Signature
%% Composed during session 251006
%% SimExp Playwright Integration
%% For Jerry's âš¡ Cross-Device Vision
%%
%% â™ ï¸ğŸŒ¿ğŸ¸ğŸ§µ G.Music Assembly
%%
